material/.icons/material/numeric-2.svg

<svg xmlns="http://www.w3.org/2000/svg" viewBox="0 0 24 24"><path d="M9 7v2h4v2h-2a2 2 0 00-2 2v4h6v-2h-4v-2h2a2 2 0 002-2V9a2 2 0 00-2-2H9z"/></svg>

<?xml version="1.0" encoding="UTF-8"?><!DOCTYPE svg PUBLIC "-//W3C//DTD SVG 1.1//EN" "http://www.w3.org/Graphics/SVG/1.1/DTD/svg11.dtd"><svg xmlns="http://www.w3.org/2000/svg" xmlns:xlink="http://www.w3.org/1999/xlink" version="1.1" id="mdi-numeric-2" width="24" height="24" viewBox="0 0 24 24"><path d="M9,7V9H13V11H11A2,2 0 0,0 9,13V17H11L15,17V15H11V13H13A2,2 0 0,0 15,11V9A2,2 0 0,0 13,7H9Z" /></svg>
